X:1
T:Anhalt, 87.87.87 D
T:Anhalt, 87.87.87 D
T:Nelson Gilreath, 1894
T:Public Domain Courtesy of the Cyber Hymnal™
C:Nelson Gilreath, 1894
Z:Public Domain
Z:Courtesy of the Cyber Hymnal™
%%score ( 1 2 ) ( 3 4 )
L:1/8
Q:1/4=100
M:4/4
K:Ab
V:1 treble 
V:2 treble 
V:3 bass 
V:4 bass 
V:1
 [CE]2 [Ec]2 [Fd]>[Ec] [DB]>[EA] | [DG]4 [DF]4 | [DG]2 [DF]2 [CE]>[Fd] [Ec]>[EB] | [Ec]6 z2 | %4
 [CE]2 [Ec]2 [Fd]>[Ec] [DB]>[EA] | [DG]4 [DF]4 | [DG]2 [DF]2 [DE]>[DF] [DG]>[DE] | [CA]6 z2 | %8
 [FA]2 [Fc]2 [Fc]>[FB] [FA]>[FB] | [=Ec]4 [EG]4 | [FA]2 [CF]2 [=DF]>[Dc] [DB]>[DF] | [DB]6 z2 | %12
 [CE]2 [Ec]2 [Fd]>[Ec] [DB]>[EA] | [DG]4 [DF]4 | [DG]2 [DF]2 [DE]>[DF] [DG]>[DE] | [CA]6 z2 | %16
 [Fd]2 [DF]2 [DF]>[DG] [DA]>[FB] | [=Ec]4 [EG]4 | [Fc]2 [Fc]2 [=DB]>[Dc] [DB]>[Dc] | B6 x2 | %20
 [CE]2 [Ec]2 [Fd]>[Ec] [DB]>[EA] | [EG]4 [DF]4 | [DG]2 [DF]2 [DE]>[DF] [DG]>[DE] | [CA]6 z2 |] %24
V:2
 x8 | x8 | x8 | x8 | x8 | x8 | x8 | x8 | x8 | x8 | x8 | x8 | x8 | x8 | x8 | x8 | x8 | x8 | x8 | %19
 (EAGFEDCB,) | x8 | x8 | x8 | x8 |] %24
V:3
 [A,,A,]2 [A,,A,]2 [A,,A,]>[A,,A,] [A,,A,]>[C,A,] | [D,F,]4 [D,A,]4 | %2
 [B,,B,]2 [B,,A,]2 [E,G,]>[E,G,] [E,G,]>[E,G,] | [A,,A,]6 z2 | %4
 [A,,A,]2 [A,,A,]2 [A,,A,]>[A,,A,] [A,,A,]>[C,A,] | [D,F,]4 [D,A,]4 | %6
 [B,,B,]2 [B,,A,]2 [E,G,]>[E,A,] [E,B,]>[E,G,] | [A,,A,]6 z2 | %8
 [F,C]2 [F,A,]2 [F,A,]>[F,A,] [F,C]>[F,A,] | [C,G,]4 [C,C]4 | %10
 [F,C]2 [F,A,]2 [B,,B,]>[B,,B,] [B,,B,]>[B,,B,] | [E,G,]6 z2 | %12
 [A,,A,]2 [A,,A,]2 [A,,A,]>[A,,A,] [A,,A,]>[C,A,] | [D,F,]4 [D,A,]4 | %14
 [B,,B,]2 [B,,A,]2 [E,G,]>[E,A,] [E,B,]>[E,G,] | [A,,A,]6 z2 | %16
 [D,A,]2 [D,A,]2 [D,A,]>[D,A,] [D,F,]>[D,F,] | [C,G,]4 [C,C]4 | %18
 [F,C]2 [F,A,]2 [B,,A,]>[B,,G,] [B,,F,]>[B,,A,] | G,6 x2 | %20
 [A,,A,]2 [A,,A,]2 [A,,A,]>[A,,A,] [A,,A,]>[A,,A,] | [D,F,]4 [D,A,]4 | %22
 [B,,B,]2 [B,,A,]2 [E,G,]>[E,A,] [E,B,]>[E,G,] | [A,,A,]6 z2 |] %24
V:4
 x8 | x8 | x8 | x8 | x8 | x8 | x8 | x8 | x8 | x8 | x8 | x8 | x8 | x8 | x8 | x8 | x8 | x8 | x8 | %19
 (E,A,G,F,E,D,C,B,,) | x8 | x8 | x8 | x8 |] %24

